T: President Garfield's
M: 4/4
L: 1/8
K: Bmix
|: AECE AECE | AGAB c_ccd | eBGB eBGB | edef e=dcB |AECE AECE | AGAB c_ccd | efgf e=dcB |1 A/B/AGB A=dcB :||: f=dAF =DFAf | ecAE CEAe | defe defe | cefe ceag |f=dAF =DFAf | ecAE CEAe | ^degf e=dcB |1 A/B/AGB A2ag :|
